X:661
T: "Die Ueberbotene"
N: Z1342
O: Europa, Mitteleuropa, Deutschland, Hessen
R: Zech -, Schalks - Lied
M: 2/4
L: 1/16
K: A
A3Bc2A2 | B2G2E4 | F3GA2F2 | E3DC4 |
D2F2E2C2 | D2F2E4 | A3Bc2A2 | G2B2A4 |
D2F2E2C2 | D2F2E4 | A3Bc2A2 | G2B2A4

@@@ Tune index: 10419
